Icons/com_merriamwebster_dictionary_activity_dictionary_DictionaryActivity.svg

<svg viewBox="0 0 48 48" xmlns:xlink="http://www.w3.org/1999/xlink">
 <defs>
  <linearGradient id="0">
   <stop stop-opacity="0"/>
   <stop offset="1"/>
  </linearGradient>
  <linearGradient xlink:href="#0" id="1" gradientUnits="userSpaceOnUse" gradientTransform="translate(4e-7,-48)" y1="47" x2="0" y2="1"/>
  <clipPath id="2">
   <g transform="translate(0,-1004.3622)">
    <rect rx="4" y="1005.36" x="1" height="46" width="46" fill="#1890d0"/>
   </g>
  </clipPath>
  <clipPath id="3">
   <g transform="translate(0,-1004.3622)">
    <rect rx="4" y="1005.36" x="1" height="46" width="46" fill="#1890d0"/>
   </g>
  </clipPath>
 </defs>
 <g>
  <g transform="translate(0,-1004.3622)">
   <path d="m 5,1006.3622 c -2.216,0 -4,1.784 -4,4 l 0,37.25 c 0,2.216 1.784,4 4,4 l 38,0 c 2.216,0 4,-1.784 4,-4 l 0,-37.25 c 0,-2.216 -1.784,-4 -4,-4 l -38,0 z m -4,41.5 0,0.5 c 0,2.216 1.784,4 4,4 l 38,0 c 2.216,0 4,-1.784 4,-4 l 0,-0.5 c 0,2.216 -1.784,4 -4,4 l -38,0 c -2.216,0 -4,-1.784 -4,-4 z" opacity="0.02"/>
   <path d="m 1,1047.6122 0,0.25 c 0,2.216 1.784,4 4,4 l 38,0 c 2.216,0 4,-1.784 4,-4 l 0,-0.25 c 0,2.216 -1.784,4 -4,4 l -38,0 c -2.216,0 -4,-1.784 -4,-4 z" opacity="0.05"/>
   <rect width="46" height="46" x="1" y="1005.61" rx="4" opacity="0.1"/>
  </g>
 </g>
 <g>
  <g transform="translate(0,-1004.3622)">
   <rect rx="4" y="1005.36" x="1" height="46" width="46" fill="#d93f3f"/>
  </g>
 </g>
 <g>
  <rect transform="scale(1,-1)" width="46" height="46" x="1" y="-46.998" rx="4" opacity="0.1" fill="url(#1)"/>
 </g>
 <g>
  <g clip-path="url(#2)">
   <g opacity="0.1">
    <g>
     <path d="M 24 24 Z M 24 24 " stroke="#000000" stroke-width="0.999"/>
     <path d="M 12 28.363281 C 12 28.363281 12 33.816406 18 33.816406 L 30 33.816406 C 36 33.816406 36 28.363281 36 28.363281 L 36 17.453125 C 36 12 30 12 30 12 L 18 12 C 12 12 12 17.453125 12 17.453125 Z M 12 28.363281 "/>
     <path d="M 30 36 C 36 36 36 28.363281 36 28.363281 C 36 28.363281 36 33.816406 30 33.816406 L 18 33.816406 C 12 33.816406 12 28.363281 12 28.363281 C 12 28.363281 12 36 18 36 Z M 30 36 "/>
     <path d="M 23.898438 27.867188 L 22.613281 24.742188 L 18.480469 24.742188 L 17.210938 27.867188 L 16 27.867188 L 20.074219 18 L 21.085938 18 L 25.140625 27.867188 L 23.898438 27.867188 M 22.242188 23.710938 L 21.042969 20.667969 C 20.886719 20.28125 20.726562 19.808594 20.5625 19.25 C 20.457031 19.679688 20.3125 20.152344 20.117188 20.667969 L 18.90625 23.710938 L 22.242188 23.710938 "/>
     <path d="M 31.132812 27.867188 L 30.898438 26.816406 L 30.84375 26.816406 C 30.457031 27.277344 30.074219 27.59375 29.6875 27.757812 C 29.304688 27.917969 28.828125 28 28.253906 28 C 27.488281 28 26.886719 27.8125 26.449219 27.433594 C 26.019531 27.058594 25.800781 26.523438 25.800781 25.828125 C 25.800781 24.34375 27.050781 23.5625 29.546875 23.492188 L 30.859375 23.449219 L 30.859375 22.992188 C 30.859375 22.414062 30.726562 21.988281 30.460938 21.714844 C 30.203125 21.4375 29.789062 21.300781 29.214844 21.300781 C 28.570312 21.300781 27.84375 21.488281 27.027344 21.863281 L 26.667969 21.011719 C 27.050781 20.8125 27.464844 20.660156 27.917969 20.546875 C 28.375 20.433594 28.828125 20.378906 29.285156 20.378906 C 30.207031 20.378906 30.886719 20.574219 31.332031 20.964844 C 31.777344 21.351562 32 21.976562 32 22.839844 L 32 27.867188 L 31.132812 27.867188 M 28.488281 27.078125 C 29.21875 27.078125 29.789062 26.890625 30.203125 26.507812 C 30.621094 26.128906 30.828125 25.59375 30.828125 24.910156 L 30.828125 24.242188 L 29.660156 24.289062 C 28.726562 24.320312 28.054688 24.460938 27.640625 24.707031 C 27.234375 24.949219 27.027344 25.328125 27.027344 25.84375 C 27.027344 26.246094 27.15625 26.554688 27.410156 26.761719 C 27.667969 26.972656 28.027344 27.078125 28.488281 27.078125 "/>
    </g>
   </g>
  </g>
 </g>
 <g>
  <g clip-path="url(#3)">
   <g transform="translate(0,-1)">
    <g>
     <path d="M 24 24 Z M 24 24 " fill="none" stroke="#000000" stroke-width="0.999"/>
     <path d="M 12 28.363281 C 12 28.363281 12 33.816406 18 33.816406 L 30 33.816406 C 36 33.816406 36 28.363281 36 28.363281 L 36 17.453125 C 36 12 30 12 30 12 L 18 12 C 12 12 12 17.453125 12 17.453125 Z M 12 28.363281 " fill="#f9f9f9"/>
     <path d="M 30 36 C 36 36 36 28.363281 36 28.363281 C 36 28.363281 36 33.816406 30 33.816406 L 18 33.816406 C 12 33.816406 12 28.363281 12 28.363281 C 12 28.363281 12 36 18 36 Z M 30 36 " fill="#dcdcdc"/>
     <path d="M 23.898438 27.867188 L 22.613281 24.742188 L 18.480469 24.742188 L 17.210938 27.867188 L 16 27.867188 L 20.074219 18 L 21.085938 18 L 25.140625 27.867188 L 23.898438 27.867188 M 22.242188 23.710938 L 21.042969 20.667969 C 20.886719 20.28125 20.726562 19.808594 20.5625 19.25 C 20.457031 19.679688 20.3125 20.152344 20.117188 20.667969 L 18.90625 23.710938 L 22.242188 23.710938 " fill="#868686"/>
     <path d="M 31.132812 27.867188 L 30.898438 26.816406 L 30.84375 26.816406 C 30.457031 27.277344 30.074219 27.59375 29.6875 27.757812 C 29.304688 27.917969 28.828125 28 28.253906 28 C 27.488281 28 26.886719 27.8125 26.449219 27.433594 C 26.019531 27.058594 25.800781 26.523438 25.800781 25.828125 C 25.800781 24.34375 27.050781 23.5625 29.546875 23.492188 L 30.859375 23.449219 L 30.859375 22.992188 C 30.859375 22.414062 30.726562 21.988281 30.460938 21.714844 C 30.203125 21.4375 29.789062 21.300781 29.214844 21.300781 C 28.570312 21.300781 27.84375 21.488281 27.027344 21.863281 L 26.667969 21.011719 C 27.050781 20.8125 27.464844 20.660156 27.917969 20.546875 C 28.375 20.433594 28.828125 20.378906 29.285156 20.378906 C 30.207031 20.378906 30.886719 20.574219 31.332031 20.964844 C 31.777344 21.351562 32 21.976562 32 22.839844 L 32 27.867188 L 31.132812 27.867188 M 28.488281 27.078125 C 29.21875 27.078125 29.789062 26.890625 30.203125 26.507812 C 30.621094 26.128906 30.828125 25.59375 30.828125 24.910156 L 30.828125 24.242188 L 29.660156 24.289062 C 28.726562 24.320312 28.054688 24.460938 27.640625 24.707031 C 27.234375 24.949219 27.027344 25.328125 27.027344 25.84375 C 27.027344 26.246094 27.15625 26.554688 27.410156 26.761719 C 27.667969 26.972656 28.027344 27.078125 28.488281 27.078125 " fill="#868686"/>
    </g>
   </g>
  </g>
 </g>
 <g>
  <g transform="translate(0,-1004.3622)">
   <path d="m 1,1043.3622 0,4 c 0,2.216 1.784,4 4,4 l 38,0 c 2.216,0 4,-1.784 4,-4 l 0,-4 c 0,2.216 -1.784,4 -4,4 l -38,0 c -2.216,0 -4,-1.784 -4,-4 z" opacity="0.1"/>
  </g>
 </g>
</svg>

<svg viewBox="0 0 48 48"><defs><linearGradient id="linearGradient3764" x1="1" x2="47" gradientUnits="userSpaceOnUse" gradientTransform="translate(-48.000001,0.00221467)"><stop stop-color="#d62e2e" stop-opacity="1"/><stop offset="1" stop-color="#d93f3f" stop-opacity="1"/></linearGradient><clipPath id="clipPath-502640830"><g transform="translate(0,-1004.3622)"><rect rx="4" y="1005.36" x="1" height="46" width="46" fill="#1890d0"/></g></clipPath><clipPath id="clipPath-516353525"><g transform="translate(0,-1004.3622)"><rect rx="4" y="1005.36" x="1" height="46" width="46" fill="#1890d0"/></g></clipPath></defs><g><path d="m 1 43 l 0 0.25 c 0 2.216 1.784 4 4 4 l 38 0 c 2.216 0 4 -1.784 4 -4 l 0 -0.25 c 0 2.216 -1.784 4 -4 4 l -38 0 c -2.216 0 -4 -1.784 -4 -4 z m 0 0.5 l 0 0.5 c 0 2.216 1.784 4 4 4 l 38 0 c 2.216 0 4 -1.784 4 -4 l 0 -0.5 c 0 2.216 -1.784 4 -4 4 l -38 0 c -2.216 0 -4 -1.784 -4 -4 z" opacity="0.02"/><path d="m 1 43.25 l 0 0.25 c 0 2.216 1.784 4 4 4 l 38 0 c 2.216 0 4 -1.784 4 -4 l 0 -0.25 c 0 2.216 -1.784 4 -4 4 l -38 0 c -2.216 0 -4 -1.784 -4 -4 z" opacity="0.05"/><path d="m 1 43 l 0 0.25 c 0 2.216 1.784 4 4 4 l 38 0 c 2.216 0 4 -1.784 4 -4 l 0 -0.25 c 0 2.216 -1.784 4 -4 4 l -38 0 c -2.216 0 -4 -1.784 -4 -4 z" opacity="0.1"/></g><g><rect width="46" height="46" x="-47" y="1" rx="4" transform="matrix(0,-1,1,0,0,0)" fill="url(#linearGradient3764)" fill-opacity="1"/></g><g><g clip-path="url(#clipPath-502640830)"><g opacity="0.1"><!-- color: #d93f3f --><g><path d="m 24 24 m 0 0" stroke="#000" stroke-width="0.999" fill="#000"/><path d="m 12 28.363 c 0 0 0 5.453 6 5.453 l 12 0 c 6 0 6 -5.453 6 -5.453 l 0 -10.91 c 0 -5.453 -6 -5.453 -6 -5.453 l -12 0 c -6 0 -6 5.453 -6 5.453 m 0 10.91" fill="#000"/><path d="m 30 36 c 6 0 6 -7.637 6 -7.637 c 0 0 0 5.453 -6 5.453 l -12 0 c -6 0 -6 -5.453 -6 -5.453 c 0 0 0 7.637 6 7.637 m 12 0" fill="#000"/><path d="m 23.898 27.867 l -1.285 -3.125 l -4.133 0 l -1.27 3.125 l -1.211 0 l 4.074 -9.867 l 1.012 0 l 4.055 9.867 l -1.242 0 m -1.656 -4.156 l -1.199 -3.043 c -0.156 -0.387 -0.316 -0.859 -0.48 -1.418 c -0.105 0.43 -0.25 0.902 -0.445 1.418 l -1.211 3.043 l 3.336 0" fill="#000"/><path d="m 31.13 27.867 l -0.234 -1.051 l -0.055 0 c -0.387 0.461 -0.77 0.777 -1.156 0.941 c -0.383 0.16 -0.859 0.242 -1.434 0.242 c -0.766 0 -1.367 -0.188 -1.805 -0.566 c -0.43 -0.375 -0.648 -0.91 -0.648 -1.605 c 0 -1.484 1.25 -2.266 3.746 -2.336 l 1.313 -0.043 l 0 -0.457 c 0 -0.578 -0.133 -1 -0.398 -1.277 c -0.258 -0.277 -0.672 -0.414 -1.246 -0.414 c -0.645 0 -1.371 0.188 -2.188 0.563 l -0.359 -0.852 c 0.383 -0.199 0.797 -0.352 1.25 -0.465 c 0.457 -0.113 0.91 -0.168 1.367 -0.168 c 0.922 0 1.602 0.195 2.047 0.586 c 0.445 0.387 0.668 1.012 0.668 1.875 l 0 5.03 l -0.867 0 m -2.645 -0.789 c 0.73 0 1.301 -0.188 1.715 -0.57 c 0.418 -0.379 0.625 -0.914 0.625 -1.598 l 0 -0.668 l -1.168 0.047 c -0.934 0.031 -1.605 0.172 -2.02 0.418 c -0.406 0.242 -0.613 0.621 -0.613 1.137 c 0 0.402 0.129 0.711 0.383 0.918 c 0.258 0.211 0.617 0.316 1.078 0.316" fill="#000"/></g></g></g></g><g><g clip-path="url(#clipPath-516353525)"><g transform="translate(0,-1)"><!-- color: #d93f3f --><g><path d="m 24 24 m 0 0" fill="none" stroke="#000" stroke-width="0.999"/><path d="m 12 28.363 c 0 0 0 5.453 6 5.453 l 12 0 c 6 0 6 -5.453 6 -5.453 l 0 -10.91 c 0 -5.453 -6 -5.453 -6 -5.453 l -12 0 c -6 0 -6 5.453 -6 5.453 m 0 10.91" fill="#f9f9f9"/><path d="m 30 36 c 6 0 6 -7.637 6 -7.637 c 0 0 0 5.453 -6 5.453 l -12 0 c -6 0 -6 -5.453 -6 -5.453 c 0 0 0 7.637 6 7.637 m 12 0" fill="#dcdcdc"/><path d="m 23.898 27.867 l -1.285 -3.125 l -4.133 0 l -1.27 3.125 l -1.211 0 l 4.074 -9.867 l 1.012 0 l 4.055 9.867 l -1.242 0 m -1.656 -4.156 l -1.199 -3.043 c -0.156 -0.387 -0.316 -0.859 -0.48 -1.418 c -0.105 0.43 -0.25 0.902 -0.445 1.418 l -1.211 3.043 l 3.336 0" fill="#868686"/><path d="m 31.13 27.867 l -0.234 -1.051 l -0.055 0 c -0.387 0.461 -0.77 0.777 -1.156 0.941 c -0.383 0.16 -0.859 0.242 -1.434 0.242 c -0.766 0 -1.367 -0.188 -1.805 -0.566 c -0.43 -0.375 -0.648 -0.91 -0.648 -1.605 c 0 -1.484 1.25 -2.266 3.746 -2.336 l 1.313 -0.043 l 0 -0.457 c 0 -0.578 -0.133 -1 -0.398 -1.277 c -0.258 -0.277 -0.672 -0.414 -1.246 -0.414 c -0.645 0 -1.371 0.188 -2.188 0.563 l -0.359 -0.852 c 0.383 -0.199 0.797 -0.352 1.25 -0.465 c 0.457 -0.113 0.91 -0.168 1.367 -0.168 c 0.922 0 1.602 0.195 2.047 0.586 c 0.445 0.387 0.668 1.012 0.668 1.875 l 0 5.03 l -0.867 0 m -2.645 -0.789 c 0.73 0 1.301 -0.188 1.715 -0.57 c 0.418 -0.379 0.625 -0.914 0.625 -1.598 l 0 -0.668 l -1.168 0.047 c -0.934 0.031 -1.605 0.172 -2.02 0.418 c -0.406 0.242 -0.613 0.621 -0.613 1.137 c 0 0.402 0.129 0.711 0.383 0.918 c 0.258 0.211 0.617 0.316 1.078 0.316" fill="#868686"/></g></g></g></g><g><g transform="translate(0,-1004.3622)"><path d="m 1 1043.36 0 4 c 0 2.216 1.784 4 4 4 l 38 0 c 2.216 0 4 -1.784 4 -4 l 0 -4 c 0 2.216 -1.784 4 -4 4 l -38 0 c -2.216 0 -4 -1.784 -4 -4 z" opacity="0.1"/></g></g></svg>
